Obsidian-SemiLight/actions/22s/im-user-busy.svg

<svg viewBox="0 0 22 22" xmlns="http://www.w3.org/2000/svg"><g fill="#f47750" transform="translate(-421.71429 -525.79071)"><path d="m432.71429 528.79032a3.99999 4.00003 0 0 0 -4 4 3.99999 4.00003 0 0 0 4 4 3.99999 4.00003 0 0 0 4-4 3.99999 4.00003 0 0 0 -4-4m0 1a3 3.00003 0 0 1 3 3 3 3.00003 0 0 1 -3 3 3 3.00003 0 0 1 -3-3 3 3.00003 0 0 1 3-3"/><path d="m12 13a7.99995 8.00003 0 0 0 -7.927734 7h1.00781a6.99996 7.00003 0 0 1 6.919924-6 6.99996 7.00003 0 0 1 1 .08008v-1.00977a7.99995 8.00003 0 0 0 -1-.07031" transform="translate(420.71429 524.79071)"/><path d="m15.5 12a3.5 3.5 0 0 0 -3.5 3.5 3.5 3.5 0 0 0 3.5 3.5 3.5 3.5 0 0 0 3.5-3.5 3.5 3.5 0 0 0 -3.5-3.5m-.5 1h1v2h1v1h-1-1v-1z" transform="translate(421.71429 525.79071)"/></g></svg>

<svg xmlns="http://www.w3.org/2000/svg" viewBox="0 0 22 22">
 <g transform="translate(-421.71429-525.79071)" style="fill:#f47750">
  <path d="m432.71429 528.79032a3.99999 4.00003 0 0 0 -4 4 3.99999 4.00003 0 0 0 4 4 3.99999 4.00003 0 0 0 4 -4 3.99999 4.00003 0 0 0 -4 -4m0 1a3 3.00003 0 0 1 3 3 3 3.00003 0 0 1 -3 3 3 3.00003 0 0 1 -3 -3 3 3.00003 0 0 1 3 -3"/>
  <path d="m12 13a7.99995 8.00003 0 0 0 -7.927734 7h1.00781A6.99996 7.00003 0 0 1 12 14a6.99996 7.00003 0 0 1 1 .08008v-1.00977A7.99995 8.00003 0 0 0 12 13" transform="translate(420.71429 524.79071)"/>
  <path d="M15.5 12A3.5 3.5 0 0 0 12 15.5 3.5 3.5 0 0 0 15.5 19 3.5 3.5 0 0 0 19 15.5 3.5 3.5 0 0 0 15.5 12M15 13H16V15H17V16H16 15V15 13" transform="translate(421.71429 525.79071)"/>
 </g>
</svg>
